X: 1
T: Calum Fhionnlaith
T: Malcolm Finlay
C: Traditional, arranged by Dan Beaton
Z: Toby A. Rider <darkrider1@tullochgorm.com>
M: 4/4
L: 1/8
R: Reel
O: Scotland
B: The Cape Breton Collection
K: E
c | BEGB EB bg | e/2e/2e fe gfec | BEGB EB bg | fefg e/2e/2e :|
g |: gebe gb eg | fefe c/2c/2c ce |1 gebe gb eg | fefg e/2e/2e eg :| |2 BEGB EB bg | fegf e/2e/2e |]
